!!!OTL: Hlai Lullaby
!!!OTL@@CHN: 黎族摇篮曲
!!!ARE: China
**kern
*clefG2
*M4/4
*k[b-]
*MM60
{4a
4a
8a
8g
8f
8d
=1
2a
16a
16g
16f
16g}
=2
{4a
4cc
8cc
8a
8dd
8cc
=3
1a}
=4
{4dd
4ee
4dd
4cc
=5
8a
8cc
8d
8f
4a
(12cc
12a
12cc)
=6
4a
4g
8f
8d
8g
8f
=7
1d}
=8
{8f
8d
8g
8f
4d
8f
8d
=9
8a
8cc
16cc
16a
16cc
16dd
2a}
=10
{4g
8a
8cc
4.a
8g
=11
8f
8g
8a
8cc
2a}
=12
{4dd
4ee
4dd
4cc
=13
8a
8cc
8d
8f
4a
(12cc
12a
12cc)
=14
4a
4g
8f
8d
8g
8f
=15
1d}
==
*-
